X: 384
T: Da Taiyuan
L: 1/8
M: 3/4
K: G
z d B d [I:setbarnb 1]| 
d/ B/A3 | 
z d B e | 
B> AG2 | 
z A A A | 
A E D D | 
E G B A | 
G ED4 | 
[M:2/4]G DG2- | 
GA2B | 
A2E G | 
A> ED2 | 
A> B d d | 
d ed2 | 
B B A G | 
A Bd2 | 
[M:3/4]g2z G E D | 
[M:2/4]A E D d | 
E G B A | 
G ED4 |]

@@@ Tune index: 9258
